X: 19
%
T: Avimore
C:Joseph Lowe
O:Scotland
B:Keith Norman MacDonald : "The Skye collection of the best reels & strathspeys extant" : 1887
Z:Ralph Palmer
R:Strathspey
M:C
L:1/8
K:A
e | c>A c/2d/2e f>de<c | B>=gd>g B<GG>B | c>A c/2d/2e f>de>c | e>agb aAA :|
g | a>ec<A c<ea>f | {/a}=g>fg>d B<GG>B | e<a g/2a/2b a2 eg | a>fe<d c<AA>g |
a>ec<A c<ea>f | {/a}=g>fg>d B<GG>B | (3a=gf (3gfe (3fed (3edc | d>cB<e cAA |]


